!!!OTL: WER REITET SO SPAET DURCH NACHT UND WIND
!!!ARE: Europa, Mitteleuropa, Deutschland
!!!SCT: B0113A
!!!YEM: Copyright 1995, estate of Helmut Schaffrath.
**kern
*ICvox
*Ivox
*M3/8
*k[b-e-]
*g:
{8d
=1
8d
8d
8d
=2
4g
8g
=3
4a
8a
=4
4b-}
{8a
=5
4b-
8b-
=6
8a
8a
8a
=7
4g
8g
=8
4dd}
{8dd
=9
4dd
8dd
=10
8cc
8cc
8cc
=11
4b-
8b-
=12
4a}
{8a
=13
4a
8a
=14
8b-
8b-
8b-
=15
4g
8a
=16
4g}
==
!!!AGN: Ballade, Romanze
!!!ONB: ESAC (Essen Associative Code) Database: BOEHME
!!!AMT: simple triple
!!!AIN: vox
!!!EED: Helmut Schaffrath
!!!EEV: 1.0
*-
